X: 1
T: Kitchen Girl, The
C: Trad
R: Reel
G: American Old-Timey
M: 4/4
L: 1/8
r:32
K: Amix
|:eg | "Am"a4 ""g4 | efed c2 cd | e2 f2 gaba | "E"^g2 e2 e4|
"Am" a4g4 | efed c2 ef | "G"g2 d2 efed | "Am"c2 A2 A2 :|
|:AB |"Am" c4 B4 | ABAG E2 EG | A2 AB c2 cd | "Em"e4 edcB
"Am"c4 B4 | ABAG E2 AB | cBAG AGED |  EGAB A2 :|
